svg/filled/no-dollars.svg

<svg width="24" height="24" viewBox="0 0 24 24" fill="none" xmlns="http://www.w3.org/2000/svg">
<path d="M18.5087 18.2158C16.87 19.9313 14.5598 21 12 21C7.02944 21 3 16.9706 3 12C3 9.44022 4.06865 7.13004 5.78416 5.49127L8.88054 8.58764C8.73607 8.90701 8.65728 9.26248 8.65728 9.64738C8.65728 11.0001 9.63753 11.8039 11.2059 12.2548L11.598 12.3676V16.0778C10.5688 15.97 9.72576 15.4407 9.63753 14.431H8.38281C8.49554 15.9749 9.67184 17.0532 11.598 17.1806V18.2736H12.4018V17.1806C14.0412 17.0674 15.1086 16.2735 15.4753 15.1824L18.5087 18.2158Z" fill="black"/>
<path d="M19.1604 17.4532L15.5861 13.879C15.3933 12.6309 14.3345 12.0378 13.428 11.7209L12.4018 10.6947V7.93684C13.4409 8.03977 14.1957 8.59851 14.3035 9.49054H15.4798C15.4308 8.05937 14.1761 6.9713 12.4018 6.85367V5.72638H11.598V6.86837C10.7449 6.95542 10.0003 7.27346 9.47385 7.76674L6.54675 4.83965C8.05996 3.68544 9.94993 3 12 3C16.9706 3 21 7.02944 21 12C21 14.0501 20.3146 15.94 19.1604 17.4532Z" fill="black"/>
<path d="M9.83429 9.5414C9.83382 9.55705 9.83358 9.57277 9.83358 9.58856C9.83358 10.5222 10.7313 10.9423 11.4576 11.1647L9.83429 9.5414Z" fill="black"/>
<path d="M11.598 9.89093L10.2613 8.55417C10.5687 8.24238 11.0287 8.0266 11.598 7.95155V9.89093Z" fill="black"/>
<path d="M13.1108 12.8179C12.899 12.7403 12.6728 12.6721 12.441 12.6077L12.4018 12.5979V16.0778C13.5879 15.9455 14.4408 15.2593 14.4408 14.2742C14.4408 14.2289 14.4388 14.1849 14.435 14.1422L13.1108 12.8179Z" fill="black"/>
</svg>

<svg xmlns="http://www.w3.org/2000/svg" viewBox="0 0 24 24" fill="currentColor">
  <path d="M18.509 18.216A9 9 0 115.784 5.49l3.097 3.097c-.145.319-.224.674-.224 1.06 0 1.352.98 2.156 2.549 2.607l.392.113v3.71c-1.03-.108-1.872-.637-1.96-1.647H8.383c.113 1.544 1.289 2.622 3.215 2.75v1.093h.804V17.18c1.64-.114 2.707-.908 3.073-1.999l3.034 3.034zM19.16 17.453l-3.574-3.574c-.193-1.248-1.252-1.841-2.158-2.158l-1.026-1.026V7.937c1.039.103 1.794.662 1.902 1.554h1.176c-.05-1.432-1.304-2.52-3.078-2.637V5.726h-.804v1.142c-.853.087-1.598.405-2.124.899L6.547 4.84A9 9 0 0119.16 17.454z"/>
  <path d="M9.834 9.541v.048c0 .933.897 1.353 1.624 1.576L9.834 9.54zM11.598 9.89l-1.337-1.336c.308-.312.768-.527 1.337-.602V9.89zM13.11 12.818a8.841 8.841 0 00-.669-.21l-.04-.01v3.48c1.187-.133 2.04-.819 2.04-1.804 0-.045-.002-.09-.006-.132l-1.324-1.324z"/>
</svg>
